X: 8
T: Swallowtail reel
P: piffero primo 10504
O: Greg Rice
R: reel
F: http://ancients.sudburymuster.org/mus/ssp/pdf/garfieldF.pdf
Z: 2019 John Chambers <jc:trillian.mit.edu>
M: 2/4
L: 1/16
K: Em
dc \
| BE (3(GFE) BE (3(GFE) | GABc dBAF | D2FD ADFD | FABc d2cd \
| BE (3(GFE) BE (3(GFE) |
| GABc d2cd | ecdB AFDF | EGFD E2 :: z2 \
| Beed e2ed | BABc dBAF |
| D2FD ADFD | FABc d2cd \
| Beed efed | BABc d2cd | ecdB AFDF | EGFD E2 :|

% %sep 1 1 200
% %center - - - - - - - - - -
% Whatever we want at the bottom of each set belongs here.
